X: 1
T:The Old Gray Mare / Caisson Song
M:2/4
L:1/8
P:Flute
%Q:1/2=120
K:Eb
Td'4 | -d'4- | d'(f/g/ =a/b/c'/d'/) | Tf'4 | Td'4- | d'4 | -d'(f/g/ =a/b/c'/d'/ | b) z/bg [|: 
b2bg | b2bg | b>c' bg | b2ga | ba2f | ba2f | e(B/c/ d/e/f/g/ | e)gbg | 
b2bg | b2bg | b>c' bg | b2 ga | ba2f | ba2f | e(B/c/ d/e/f/g/ | e) zbb | e'2e'2 | 
b2bb | c'>d' e'c' | b(b/=a/ b)c' | e'e'2d' | c'c'd'e' | d'(=e/f/ g/f/e/f/ | b)z bb | e'2e'2 | 
Tb4 | c'>d' e'c' | b2ga | ba2f | ba2f | e(b/=a/ b)g | ez ga | ba2f | ba2f | e(B/c/ d/e/f/g/ |1 e)z bg :|]2 e)ze2 || 
T:Old Grey Mare
[K:Ab]a(c/d/ e)c | efgb | zc'2=b | c'ba2 | zb2=a | ba g2 | zc'2=b | c'bae | 
a(c/d/ e)c | efgb | zc'2=b | c'ba2 | b(f/g/ a)f | c'(e/f/ g)e | a(=d/e/ f/e/d/e/ | a)zc'2 || 
e'e'e'2 | f'3f' | e'(c/d/ e/f/g/a/) | Tc'4 | c'c'c'2 | d'3d' | c'(c/d/ e/f/g/a/) | (c'3b) | 
a(c/d/ e)c | efgb | zc'2=b | c'ba2 | zb2=a | bag2 | zc'2=b | c'bae | 
a(c/d/ e)c | efgb | zc'2=b | c'ba2 | b(f/g/ a)f | c'(e/f/ g)e | a(=d/e/ f/e/d/e/ | a)zz2 |] 
%%textfont helvetica 10
%%begintext
%% FIRST TO FIGHT, FOR THE RIGHT AND TO BUILD THE NATION'S MIGHT AND THE ARMY GOES ROLLING ALONG.
%% PROUD OF ALL WE HAVE DONE, FIGHTING TILL THE BATTLE'S WON, AND  THE ARMY GOES ROLLING ALONG.
%% THEN IT'S HI! HI! HEY! THE ARMY'S ON ITS' WAY, COUNT OFF THE CADENCE LOUD AND STRONG,
%% FOR WHERE 'ERE WE GO, YOU WILL ALWAYS KNOW, THAT THE ARMY GOES ROLLING ALONG. THAT THE ARMY GOES ROLLING ALONG.
%%endtext
